lib/brands/icons/vimeo-alt.svg

<svg xmlns="http://www.w3.org/2000/svg" fill="none" aria-hidden="true" viewBox="0 0 48 48"><g id="vimeo-alt-Icon"><g id="Vimeo"><path id="back" fill="#31AFD8" d="M0 24C0 10.7452 10.7452 0 24 0C37.2548 0 48 10.7452 48 24C48 37.2548 37.2548 48 24 48C10.7452 48 0 37.2548 0 24Z"/><path id="Fill-4" fill="#FFFFFE" d="M37.5858 19.362C37.4576 22.1653 35.4998 26.0032 31.7121 30.8756C27.7965 35.9632 24.4834 38.5081 21.7744 38.5081C20.0949 38.5081 18.6744 36.9595 17.5137 33.8599C16.7389 31.0187 15.9648 28.1779 15.1896 25.3366C14.3274 22.2387 13.4035 20.6881 12.4145 20.6881C12.199 20.6881 11.4451 21.1414 10.1542 22.0441L8.7998 20.2992C10.2212 19.0508 11.6231 17.8021 13.0023 16.5517C14.898 14.9144 16.3221 14.0525 17.2706 13.9659C19.511 13.7503 20.8906 15.282 21.4084 18.5609C21.968 22.0992 22.3556 24.2995 22.5728 25.1606C23.2197 28.0962 23.9308 29.5624 24.7069 29.5624C25.309 29.5624 26.215 28.6106 27.4226 26.7056C28.6278 24.8019 29.2741 23.3533 29.3611 22.3576C29.5335 20.7147 28.8872 19.891 27.4226 19.891C26.7331 19.891 26.0221 20.0498 25.2907 20.3633C26.7065 15.728 29.4106 13.4767 33.4019 13.6052C36.361 13.6919 37.7568 15.6108 37.5858 19.362"/></g></g></svg>

<svg xmlns="http://www.w3.org/2000/svg" fill="none" aria-hidden="true" viewBox="0 0 48 48"><path fill="#31AFD8" d="M0 24C0 10.745 10.745 0 24 0s24 10.745 24 24-10.745 24-24 24S0 37.255 0 24Z"/><path fill="#FFFFFE" d="M37.586 19.362c-.128 2.803-2.086 6.641-5.874 11.514-3.915 5.087-7.229 7.632-9.938 7.632-1.68 0-3.1-1.549-4.26-4.648l-2.324-8.523c-.863-3.098-1.787-4.649-2.775-4.649-.216 0-.97.453-2.26 1.356L8.8 20.3a357.29 357.29 0 0 0 4.202-3.747c1.896-1.638 3.32-2.5 4.269-2.586 2.24-.216 3.62 1.316 4.137 4.595.56 3.538.948 5.738 1.165 6.6.647 2.935 1.358 4.401 2.134 4.401.602 0 1.508-.951 2.716-2.856 1.205-1.904 1.851-3.353 1.938-4.348.172-1.643-.474-2.467-1.938-2.467-.69 0-1.4.159-2.132.472 1.415-4.635 4.12-6.886 8.11-6.758 2.96.087 4.356 2.006 4.185 5.757"/></svg>
